actions/16/go-down.svg

<?xml version="1.0" encoding="UTF-8" standalone="no"?>
<!-- Created with Inkscape (http://www.inkscape.org/) -->

<svg
   xmlns:dc="http://purl.org/dc/elements/1.1/"
   xmlns:cc="http://creativecommons.org/ns#"
   xmlns:rdf="http://www.w3.org/1999/02/22-rdf-syntax-ns#"
   xmlns:svg="http://www.w3.org/2000/svg"
   xmlns="http://www.w3.org/2000/svg"
   xmlns:xlink="http://www.w3.org/1999/xlink"
   xmlns:inkscape="http://www.inkscape.org/namespaces/inkscape"
   version="1.1"
   width="16"
   height="16"
   id="svg2497">
  <defs
     id="defs2499">
    <linearGradient
       id="linearGradient5105-262-943-861">
      <stop
         id="stop2487"
         style="stop-color:#0d0d0d;stop-opacity:1"
         offset="0" />
      <stop
         id="stop2489"
         style="stop-color:#0d0d0d;stop-opacity:0"
         offset="1" />
    </linearGradient>
    <radialGradient
       cx="11.25"
       cy="19.03125"
       r="8.0625"
       fx="11.25"
       fy="19.03125"
       id="radialGradient2502"
       xlink:href="#linearGradient5105-262-943-861"
       gradientUnits="userSpaceOnUse"
       gradientTransform="matrix(1,0,0,0.282946,0,13.64644)" />
    <linearGradient
       id="linearGradient2264">
      <stop
         id="stop2266"
         style="stop-color:#d7e866;stop-opacity:1"
         offset="0" />
      <stop
         id="stop2268"
         style="stop-color:#8cab2a;stop-opacity:1"
         offset="1" />
    </linearGradient>
    <linearGradient
       x1="28.314739"
       y1="20.709501"
       x2="0.81572169"
       y2="20.709501"
       id="linearGradient2512"
       xlink:href="#linearGradient2264"
       gradientUnits="userSpaceOnUse"
       gradientTransform="matrix(0,-0.319447,-0.313352,0,15.486281,15.08587)" />
    <linearGradient
       id="linearGradient4222">
      <stop
         id="stop4224"
         style="stop-color:#ffffff;stop-opacity:1"
         offset="0" />
      <stop
         id="stop4226"
         style="stop-color:#ffffff;stop-opacity:0"
         offset="1" />
    </linearGradient>
    <linearGradient
       x1="13.471772"
       y1="25.410501"
       x2="57.726395"
       y2="25.410501"
       id="linearGradient2509"
       xlink:href="#linearGradient4222"
       gradientUnits="userSpaceOnUse"
       gradientTransform="matrix(0,0.3704967,-0.3617496,0,17.508315,-1.3320539)" />
  </defs>
  <metadata
     id="metadata2502">
    <rdf:RDF>
      <cc:Work
         rdf:about="">
        <dc:format>image/svg+xml</dc:format>
        <dc:type
           rdf:resource="http://purl.org/dc/dcmitype/StillImage" />
      </cc:Work>
    </rdf:RDF>
  </metadata>
  <g
     id="layer1">
    <path
       d="M 14.176046,7.5 7.9844847,14.500853 1.8239536,7.5 4.5,7.5 l 0,-6.000853 7,0 0,6.000853 2.676046,0 z"
       inkscape:connector-curvature="0"
       id="path3288"
       style="fill:url(#linearGradient2512);fill-opacity:1;fill-rule:nonzero;stroke:#699536;stroke-width:0.99829447;stroke-linecap:round;stroke-linejoin:round;stroke-miterlimit:4;stroke-opacity:1;stroke-dasharray:none;stroke-dashoffset:0;marker:none;visibility:visible;display:inline;overflow:visible" />
    <path
       d="M 11.926403,8.5 8,13.045115 3.9630618,8.5 5.5,8.5 l 0,-6 5,0 0,6 1.426403,0 z"
       inkscape:connector-curvature="0"
       id="path3290"
       style="opacity:0.35400008;fill:none;stroke:url(#linearGradient2509);stroke-width:0.99829447;stroke-linecap:butt;stroke-linejoin:miter;stroke-miterlimit:4;stroke-opacity:1;stroke-dasharray:none;stroke-dashoffset:0;marker:none;visibility:visible;display:inline;overflow:visible" />
  </g>
</svg>

<?xml version="1.0" encoding="UTF-8" standalone="no"?>
<!-- Created with Inkscape (http://www.inkscape.org/) -->
<svg
   xmlns:dc="http://purl.org/dc/elements/1.1/"
   xmlns:cc="http://creativecommons.org/ns#"
   xmlns:rdf="http://www.w3.org/1999/02/22-rdf-syntax-ns#"
   xmlns:svg="http://www.w3.org/2000/svg"
   xmlns="http://www.w3.org/2000/svg"
   xmlns:xlink="http://www.w3.org/1999/xlink"
   xmlns:sodipodi="http://sodipodi.sourceforge.net/DTD/sodipodi-0.dtd"
   xmlns:inkscape="http://www.inkscape.org/namespaces/inkscape"
   width="16px"
   height="16px"
   id="svg2497"
   sodipodi:version="0.32"
   inkscape:version="0.46"
   sodipodi:docname="go-down.svg"
   inkscape:output_extension="org.inkscape.output.svg.inkscape">
  <defs
     id="defs2499">
    <linearGradient
       inkscape:collect="always"
       id="linearGradient5105-262-943-861">
      <stop
         offset="0"
         id="stop2487"
         style="stop-color:#0d0d0d;stop-opacity:1;" />
      <stop
         offset="1"
         id="stop2489"
         style="stop-color:#0d0d0d;stop-opacity:0;" />
    </linearGradient>
    <radialGradient
       inkscape:collect="always"
       xlink:href="#linearGradient5105-262-943-861"
       id="radialGradient2502"
       gradientUnits="userSpaceOnUse"
       gradientTransform="matrix(1,0,0,0.282946,0,13.64644)"
       cx="11.25"
       cy="19.03125"
       fx="11.25"
       fy="19.03125"
       r="8.0625" />
    <linearGradient
       id="linearGradient2264">
      <stop
         style="stop-color:#d7e866;stop-opacity:1;"
         offset="0"
         id="stop2266" />
      <stop
         style="stop-color:#8cab2a;stop-opacity:1;"
         offset="1"
         id="stop2268" />
    </linearGradient>
    <linearGradient
       inkscape:collect="always"
       xlink:href="#linearGradient2264"
       id="linearGradient2512"
       gradientUnits="userSpaceOnUse"
       gradientTransform="matrix(0,-0.319447,-0.313352,0,15.486281,15.08587)"
       x1="28.314739"
       y1="20.709501"
       x2="0.81572169"
       y2="20.709501" />
    <linearGradient
       inkscape:collect="always"
       id="linearGradient4222">
      <stop
         style="stop-color:#ffffff;stop-opacity:1;"
         offset="0"
         id="stop4224" />
      <stop
         style="stop-color:#ffffff;stop-opacity:0;"
         offset="1"
         id="stop4226" />
    </linearGradient>
    <linearGradient
       inkscape:collect="always"
       xlink:href="#linearGradient4222"
       id="linearGradient2509"
       gradientUnits="userSpaceOnUse"
       gradientTransform="matrix(0,0.3704967,-0.3617496,0,17.508315,-1.3320539)"
       x1="13.471772"
       y1="25.410501"
       x2="57.726395"
       y2="25.410501" />
  </defs>
  <sodipodi:namedview
     id="base"
     pagecolor="#ffffff"
     bordercolor="#666666"
     borderopacity="1.0"
     inkscape:pageopacity="0.0"
     inkscape:pageshadow="2"
     inkscape:zoom="22.197802"
     inkscape:cx="1.1524752"
     inkscape:cy="8"
     inkscape:current-layer="layer1"
     showgrid="true"
     inkscape:grid-bbox="true"
     inkscape:document-units="px"
     inkscape:window-width="640"
     inkscape:window-height="702"
     inkscape:window-x="399"
     inkscape:window-y="53" />
  <metadata
     id="metadata2502">
    <rdf:RDF>
      <cc:Work
         rdf:about="">
        <dc:format>image/svg+xml</dc:format>
        <dc:type
           rdf:resource="http://purl.org/dc/dcmitype/StillImage" />
      </cc:Work>
    </rdf:RDF>
  </metadata>
  <g
     id="layer1"
     inkscape:label="Layer 1"
     inkscape:groupmode="layer">
    <path
       id="path3288"
       d="M 14.176046,7.5 L 7.9844847,14.500853 L 1.8239536,7.5 L 4.5,7.5 L 4.5,1.499147 L 11.5,1.499147 L 11.5,7.5 L 14.176046,7.5 z"
       style="display:inline;fill:url(#linearGradient2512);fill-opacity:1;fill-rule:nonzero;stroke:#699536;stroke-width:0.99829447000000004;stroke-linecap:round;stroke-linejoin:round;marker:none;marker-start:none;marker-mid:none;marker-end:none;stroke-miterlimit:4;stroke-dasharray:none;stroke-dashoffset:0;stroke-opacity:1;visibility:visible;overflow:visible"
       sodipodi:nodetypes="cccccccc" />
    <path
       id="path3290"
       d="M 11.926403,8.5 L 8,13.045115 L 3.9630618,8.5 L 5.5,8.5 L 5.5,2.5 L 10.5,2.5 L 10.5,8.5 L 11.926403,8.5 z"
       style="display:inline;opacity:0.35400002000000003;fill:none;fill-opacity:1;fill-rule:nonzero;stroke:url(#linearGradient2509);stroke-width:0.99829447000000004;stroke-linecap:butt;stroke-linejoin:miter;marker:none;marker-start:none;marker-mid:none;marker-end:none;stroke-miterlimit:4;stroke-dasharray:none;stroke-dashoffset:0;stroke-opacity:1;visibility:visible;overflow:visible"
       sodipodi:nodetypes="cccccccc" />
  </g>
</svg>
